X: 19
T:Big Footed Man in the Sandy Lot
R:Reel
M:4/4
L:1/8
N:From Greg Canote
K:G
|:gage gagf|edBcd4|e3gadBc|[f3d3][fd][f4d4]|gage
gagf|edBcd4|BAGB AGED|[B3G3][BG][B4G4]::G2BG
AGBG|AGEFG4|e3gedBc|d3dd4|gage gagf|edBcd4|BAGB
AGFD|[B3G3][BG][B4G4]:|

